X: 3632
T:Old Hag You Have Killed Me
R:Jig
S:irtrad-l, L. LaVerne, 11/97
N:as played by David Kidd
D:Bothy Band
Z:Lorna LaVerne
P:AABB
M:6/8
L:1/8
K:G
AG|FED c2A|ded cAG|~A3 ABG|A2A A2G|!
FED c2A|ded cAF|~G3 GcA|GcA G2G|!
FED c2A|ded cAG|~A3 ABG|A2A A2G|!
FED c2A|ded cAF|~G3 GcA|GcA G2d|!
~f3 gfg|afd cAG|A2A ABG|ABG A2d|!
~f3 gfg|afd cAF|~G3 GcA|GcA G2d|!
~f3 gfg|afd cAG|A2A ABG|ABG A2d|!
~f3 gfg|afd cAF|~G3 GcA|GcA G3|!
